X:1
T:Os Patinhos
T:Os Patinhos
T:lição 10
%%score ( 1 2 )
L:1/8
Q:1/4=40
M:2/4
K:C
V:1 treble nm="Piano" snm="Pno."
V:2 treble 
V:1
"C" !1!C!2!D!3!E!4!F | !5!G2 !4!G2 |"F" !5!AAAA |"C" !4!G4 |"F" AAAA |"C" G3 G |"G" !3!FFFF | %7
"C" !2!E2 EE |"G" !1!D!2!D!3!E!2!D |"C" !1!C3 !3!E |"F" FFFF |"C" E2 EE |"G" DDED |"C" C4 |] %14
V:2
 x4- | x4 | x4 | x4 | x4 | x4 | x4 | x4 | x4 | x4 | x4 | x4 | x4 | x4 |] %14

